images/icons/v2/share-ios-24.svg

<svg height="24" viewBox="0 0 24 24" width="24" xmlns="http://www.w3.org/2000/svg"><path d="m22 11v8a3 3 0 0 1 -3 3h-14a3 3 0 0 1 -3-3v-8a3 3 0 0 1 3-3h4.75v1.5h-4.75a1.5 1.5 0 0 0 -1.5 1.5v8a1.5 1.5 0 0 0 1.5 1.5h14a1.5 1.5 0 0 0 1.5-1.5v-8a1.5 1.5 0 0 0 -1.5-1.5h-4.75v-1.5h4.75a3 3 0 0 1 3 3zm-10.01-10-4.467 4.47 1.061 1.06 1.833-1.83.833-1.17v11.47h1.5v-11.43l.731 1.022 1.94 1.924 1.057-1.066z"/></svg>

<svg xmlns="http://www.w3.org/2000/svg" width="24" height="24" viewBox="0 0 24 24"><title>share-ios-24</title><path d="M22,11v8a3,3,0,0,1-3,3H5a3,3,0,0,1-3-3V11A3,3,0,0,1,5,8H9.75V9.5H5A1.5,1.5,0,0,0,3.5,11v8A1.5,1.5,0,0,0,5,20.5H19A1.5,1.5,0,0,0,20.5,19V11A1.5,1.5,0,0,0,19,9.5H14.25V8H19A3,3,0,0,1,22,11ZM11.99,1,7.523,5.47,8.584,6.53,10.417,4.7,11.25,3.53V15h1.5V3.57l.731,1.022,1.94,1.924L16.478,5.45Z"/></svg>
